X:99
T:Salmon Pie
M:C|
L:1/8
C:© Paul Gitlitz 2004
R:Reel
B:Hunters and Gtherers
N:For a lovely dinner Suzanne served after the jam at Bryn and her place on the water.
K:G
"G"~d2ed ^cded|gdad bdad|"Em"ebag eage|"C"egdc "D"A3^c|!
"G"~d2ed ^cded|gdad bdad|"Em"ebag eage|1"D"dcAF "G"G4:|2"D"dcAF "G"G2AG|!
|:"D"FGAB cAFD|"G"GABc dBAG|"C"cBcd ed^cd|"A"ae^ce "D"d3A|!
"D"FGAB cAFD|"G"GABc dBAG|~d2ed  "A"^cdeg|"D7"ecAF "G"G4:|!
